public/avatar/shoe/87.svg

<svg xmlns:xlink="http://www.w3.org/1999/xlink" height="38.3" width="36.05" xmlns="http://www.w3.org/2000/svg"><use height="16.3" transform="translate(9.2 12)" width="23.35" xlink:href="#a"/><defs><g id="a" fill-rule="evenodd"><path d="m3-2.55.4.2.95.25 1.05.5 3.35 6.95v2.3l-.15.3-.05.25-.15.15-.05.2L7 9.65l-2.5 1.3h-.15l-.45.25-1.3.5-6.7 1.6-3.3.15-3-.25-2.7-.6-.65-.45-.35-.45-.15-.4v-.2l-.15-.8v-.75l-.1-.25v-.1l-.1-.4.1-.45.15-.4.2-.55.65-1 1.3-1.55 5.6-5.2 1.5-.95-.05-.05.55-.25.45-.3.05.05 1.65-.7 2.35-.3 3.1.3" transform="translate(14.6 2.85)"/><path d="m4.3-.55 2.85 6v1.9l-.05.2v.1l-.05.05v.15L5.1 9.3l-.5.15-.45.25-.5.2h-.1l-.05.05-.4.2-3.95 1.25-4.75.75h-2.8l-3.55-.75-.3-.2-.2-.05-.2-.3-.05-.2v-.2l-.15-.6v-.8l-.1-.25v-.6l.25-.65.5-.85 1.2-1.35 5.05-4.7 1.75-1.1q.95-.4 1.8-.85l2.05-.25 2.65.25 1.2.4.8.35" fill="#844d04" transform="translate(14.6 2.85)"/><path d="m5.5 1.95 1.65 3.5v1.9l-.05.2v.1l-.05.05v.15L5.1 9.3l-.5.15-.45.25-.5.2h-.1l-.05.05-.4.2-2.5.8-6.2 1.2h-2.8l-2.45-.45-1.1-.3-.3-.2-.2-.05-.2-.3-.05-.2v-.2l-.15-.6v-.8l-.1-.25v-.6l.25-.65.1-.25q4.5 2.15 10.6 0 5.4-2 7.5-5.35" fill="#613004" transform="translate(14.6 2.85)"/><path d="M7.5 7.7q-9.45 6.95-20.1 3.6l-.35-2.5 11.1.3q6.1-1.2 9-3.65.2-.25.35.75v1.5" fill="#2b1409" transform="translate(14.6 2.85)"/><path d="M-8.5-1.05q1.65-1.8 6 1Q-1 .95-1 1.7l-.1.35Q-1.25 3.1-3 5.65q-1.85 2.5-2.85 3.25l.1-.1-.2.15.1-.05q-.4.45-1.3.3-1.45-.1-3.7-1.3-2.4-1.3-2.8-2.3l-.05-.4.2-.6q1.35-3.4 5-5.65" fill="#020100" transform="translate(14.6 2.85)"/><path d="M-6.5 7.85q-.5.7-3.6-.8-3.05-1.6-2.5-2.25.9-2.9 4.5-5.1.7-.8 3.4.4 2.6 1.1 2.3 1.85-.1.75-1.7 3-1.55 2.35-2.4 2.9" fill="#fc0" transform="translate(14.6 2.85)"/><path d="M-6.65 7.95q-.3.45-2.5-.55l-3-1.75q.95-.45 2.95.65 2.1 1.15 3.85-1.35.85-2.25 1.5-3.25l1.5.25q-.25.95-1.9 3.35-1.7 2.3-2.4 2.65" fill="#a87300" transform="translate(14.6 2.85)"/><path d="M-4.85.85q.5.1.6.55 0 .45-.4.55l-.95-.15-2.15-.7q-.85 0-2.35 1.7-1.55 1.75-2.15 1.75.05-1.2 3.55-4.45.85-.7 3.55.75h.3" fill="#fff" transform="translate(14.6 2.85)"/><path d="M-6.65 1.55q.75.25.95.4.6.35.6.85v.05l-.05.2.05-.15q-.35 1.65-1.55 2.4l-.1.05-.1.05-.55.15q-1.95-.2-2.35-1.35l-.1-.3.1-.2q.3-1.15 1.8-2.1l-.15.05 1.45-.1" transform="translate(14.6 2.85)"/><path d="M-7.15 4.6q-.2.25-1.6-.8.25-.75 1.15-1.35 1.6.35 1.5.6 0 .9-1.05 1.55" fill="#844d04" transform="translate(14.6 2.85)"/></g></defs></svg>

<?xml version="1.0" encoding="UTF-8" standalone="no"?>
<svg xmlns:xlink="http://www.w3.org/1999/xlink" height="38.3px" width="36.05px" xmlns="http://www.w3.org/2000/svg">
  <g transform="matrix(1.0, 0.0, 0.0, 1.0, 23.8, 14.85)">
    <use height="16.3" transform="matrix(1.0, 0.0, 0.0, 1.0, -14.6, -2.85)" width="23.35" xlink:href="#shape0"/>
  </g>
  <defs>
    <g id="shape0" transform="matrix(1.0, 0.0, 0.0, 1.0, 14.6, 2.85)">
      <path d="M3.0 -2.55 L3.4 -2.35 4.35 -2.1 5.4 -1.6 8.75 5.35 8.75 7.65 8.6 7.95 8.55 8.2 8.4 8.35 8.35 8.55 7.0 9.65 4.5 10.95 4.35 10.95 3.9 11.2 2.6 11.7 -4.1 13.3 -7.4 13.45 -10.4 13.2 -13.1 12.6 -13.75 12.15 -14.1 11.7 -14.25 11.3 -14.25 11.1 -14.4 10.3 -14.4 9.55 -14.5 9.3 -14.5 9.2 -14.6 8.8 -14.5 8.35 -14.35 7.95 -14.15 7.4 -13.5 6.4 -12.2 4.85 -6.6 -0.35 -5.1 -1.3 -5.15 -1.35 -4.6 -1.6 -4.15 -1.9 -4.1 -1.85 -2.45 -2.55 -0.1 -2.85 3.0 -2.55" fill="#000000" fill-rule="evenodd" stroke="none"/>
      <path d="M4.3 -0.55 L7.15 5.45 7.15 7.35 7.1 7.55 7.1 7.65 7.05 7.7 7.05 7.85 5.1 9.3 4.6 9.45 4.15 9.7 3.65 9.9 3.55 9.9 3.5 9.95 3.1 10.15 -0.85 11.4 -5.6 12.15 -8.4 12.15 -11.95 11.4 -12.25 11.2 -12.45 11.15 -12.65 10.85 -12.7 10.65 -12.7 10.45 -12.85 9.85 -12.85 9.05 -12.95 8.8 -12.95 8.2 -12.7 7.55 -12.2 6.7 -11.0 5.35 -5.95 0.65 -4.2 -0.45 Q-3.25 -0.85 -2.4 -1.3 L-0.35 -1.55 2.3 -1.3 3.5 -0.9 4.3 -0.55" fill="#844d04" fill-rule="evenodd" stroke="none"/>
      <path d="M5.5 1.95 L7.15 5.45 7.15 7.35 7.1 7.55 7.1 7.65 7.05 7.7 7.05 7.85 5.1 9.3 4.6 9.45 4.15 9.7 3.65 9.9 3.55 9.9 3.5 9.95 3.1 10.15 0.6 10.95 -5.6 12.15 -8.4 12.15 -10.85 11.7 -11.95 11.4 -12.25 11.2 -12.45 11.15 -12.65 10.85 -12.7 10.65 -12.7 10.45 -12.85 9.85 -12.85 9.05 -12.95 8.8 -12.95 8.2 -12.7 7.55 -12.6 7.3 Q-8.1 9.45 -2.0 7.3 3.4 5.3 5.5 1.95" fill="#613004" fill-rule="evenodd" stroke="none"/>
      <path d="M7.5 7.7 Q-1.95 14.65 -12.6 11.3 L-12.95 8.8 -1.85 9.1 Q4.25 7.9 7.15 5.45 7.35 5.2 7.5 6.2 L7.5 7.7" fill="#2b1409" fill-rule="evenodd" stroke="none"/>
      <path d="M-8.5 -1.05 Q-6.85 -2.85 -2.5 -0.05 -1.0 0.95 -1.0 1.7 L-1.1 2.05 Q-1.25 3.1 -3.0 5.65 -4.85 8.15 -5.85 8.9 L-5.75 8.8 -5.95 8.95 -5.85 8.9 Q-6.25 9.35 -7.15 9.2 -8.6 9.1 -10.85 7.9 -13.25 6.6 -13.65 5.6 L-13.7 5.2 -13.5 4.6 Q-12.15 1.2 -8.5 -1.05" fill="#020100" fill-rule="evenodd" stroke="none"/>
      <path d="M-6.5 7.85 Q-7.0 8.55 -10.1 7.05 -13.15 5.45 -12.6 4.8 -11.7 1.9 -8.1 -0.3 -7.4 -1.1 -4.7 0.1 -2.1 1.2 -2.4 1.95 -2.5 2.7 -4.1 4.95 -5.65 7.3 -6.5 7.85" fill="#ffcc00" fill-rule="evenodd" stroke="none"/>
      <path d="M-6.65 7.95 Q-6.95 8.4 -9.15 7.4 L-12.15 5.65 Q-11.2 5.2 -9.2 6.3 -7.1 7.45 -5.35 4.95 -4.5 2.7 -3.85 1.7 L-2.35 1.95 Q-2.6 2.9 -4.25 5.3 -5.95 7.6 -6.65 7.95" fill="#a87300" fill-rule="evenodd" stroke="none"/>
      <path d="M-4.85 0.85 Q-4.35 0.95 -4.25 1.4 -4.25 1.85 -4.65 1.95 L-5.6 1.8 -7.75 1.1 Q-8.6 1.1 -10.1 2.8 -11.65 4.55 -12.25 4.55 -12.2 3.35 -8.7 0.1 -7.85 -0.6 -5.15 0.85 L-4.85 0.85" fill="#ffffff" fill-rule="evenodd" stroke="none"/>
      <path d="M-6.65 1.55 Q-5.9 1.8 -5.7 1.95 -5.1 2.3 -5.1 2.8 L-5.1 2.85 -5.15 3.05 -5.1 2.9 Q-5.45 4.55 -6.65 5.3 L-6.75 5.35 -6.85 5.4 -7.4 5.55 Q-9.35 5.35 -9.75 4.2 L-9.85 3.9 -9.75 3.7 Q-9.45 2.55 -7.95 1.6 L-8.1 1.65 -6.65 1.55" fill="#000000" fill-rule="evenodd" stroke="none"/>
      <path d="M-7.15 4.6 Q-7.35 4.85 -8.75 3.8 -8.5 3.05 -7.6 2.45 -6.0 2.8 -6.1 3.05 -6.1 3.95 -7.15 4.6" fill="#844d04" fill-rule="evenodd" stroke="none"/>
    </g>
  </defs>
</svg>
